src/components/Icon/assets/hand-love.svg

<svg width="24" height="24" viewBox="0 0 24 24" fill="none" xmlns="http://www.w3.org/2000/svg">
<path fill-rule="evenodd" clip-rule="evenodd" d="M18.5802 16.8575C17.8162 18.7665 15.9942 20.0005 13.9372 20.0005H13.1582C11.8242 20.0005 10.5692 19.4805 9.6252 18.5375L4.1242 13.0435C4.0062 12.9255 3.9892 12.7895 3.9892 12.7175C3.9892 12.6455 4.0062 12.5085 4.1512 12.3645C4.2482 12.2665 4.3772 12.2125 4.5122 12.2115C4.6452 12.2115 4.7702 12.2645 4.8652 12.3585L7.1252 14.6225C7.4422 14.9345 7.9112 15.0285 8.3232 14.8565C8.7342 14.6855 9.0002 14.2865 9.0002 13.8405V4.50049C9.0002 4.22449 9.2242 4.00049 9.5002 4.00049C9.7762 4.00049 10.0002 4.22449 10.0002 4.50049V13.4955C10.0002 14.8765 11.1222 16.0005 12.5002 16.0005C13.0652 16.0005 13.5812 15.8035 14.0002 15.4865C14.4192 15.8035 14.9352 16.0005 15.5002 16.0005C16.8782 16.0005 18.0002 14.8765 18.0002 13.4955V10.9955L18.0072 7.47049C18.0082 7.20849 18.2232 6.99349 18.4862 6.99349C18.7682 6.99349 18.9982 7.22149 18.9982 7.50349L19.0002 14.6775C19.0002 15.4265 18.8592 16.1605 18.5802 16.8575ZM12.5002 10.0005C12.7762 10.0005 13.0002 10.2265 13.0002 10.5045V13.4955C13.0002 13.7735 12.7762 14.0005 12.5002 14.0005C12.2242 14.0005 12.0002 13.7735 12.0002 13.4955V10.5045C12.0002 10.2265 12.2242 10.0005 12.5002 10.0005ZM15.5002 10.0005C15.7762 10.0005 16.0002 10.2265 16.0002 10.5045V13.4955C16.0002 13.7735 15.7762 14.0005 15.5002 14.0005C15.2242 14.0005 15.0002 13.7735 15.0002 13.4955V10.5045C15.0002 10.2265 15.2242 10.0005 15.5002 10.0005ZM20.9982 7.50349C20.9982 6.11949 19.8722 4.99349 18.4862 4.99349C17.1222 4.99349 16.0112 6.10249 16.0072 7.46649L16.0062 8.05149C15.8432 8.01749 15.6732 8.00049 15.5002 8.00049C14.9352 8.00049 14.4192 8.19649 14.0002 8.51349C13.5812 8.19649 13.0652 8.00049 12.5002 8.00049C12.3292 8.00049 12.1622 8.01749 12.0002 8.05049V4.50049C12.0002 3.12149 10.8782 2.00049 9.5002 2.00049C8.1222 2.00049 7.0002 3.12149 7.0002 4.50049V11.6665L6.2812 10.9465C5.8092 10.4725 5.1812 10.2115 4.5142 10.2115H4.5092C3.8412 10.2135 3.2122 10.4755 2.7092 10.9765C2.2452 11.4425 1.9892 12.0605 1.9892 12.7175C1.9892 13.3765 2.2462 13.9945 2.7112 14.4595L8.2112 19.9525C9.5332 21.2725 11.2902 22.0005 13.1582 22.0005H13.9372C16.8162 22.0005 19.3672 20.2725 20.4362 17.5995C20.8102 16.6665 21.0002 15.6825 21.0002 14.6775L20.9982 7.50349Z" fill="#65676A"/>
</svg>

<svg xmlns="http://www.w3.org/2000/svg" width="24" height="24" viewBox="0 0 24 24">
    <path fill="#65676A" fill-rule="evenodd" d="M18.58 16.858C17.816 18.767 15.994 20 13.937 20h-.779c-1.334 0-2.589-.52-3.533-1.462l-5.5-5.495c-.119-.117-.136-.253-.136-.325 0-.072.017-.21.162-.354.097-.098.226-.152.361-.153h.001c.133 0 .257.053.352.147l2.26 2.264c.317.313.786.406 1.198.235.411-.171.677-.57.677-1.016V4.5c0-.277.224-.5.5-.5s.5.223.5.5V13.495C10 14.875 11.122 16 12.5 16c.565 0 1.081-.197 1.5-.514.42.317.935.514 1.5.514 1.378 0 2.5-1.123 2.5-2.505V10.997l.007-3.526c.001-.261.216-.476.48-.476.281 0 .511.228.511.51L19 14.678c0 .748-.14 1.482-.42 2.18zM12.5 10c.276 0 .5.226.5.504v2.99c0 .279-.224.506-.5.506s-.5-.227-.5-.505v-2.991c0-.279.224-.505.5-.505zm3 0c.276 0 .5.226.5.504v2.99c0 .279-.224.506-.5.506s-.5-.227-.5-.505v-2.991c0-.279.224-.505.5-.505zm5.498-2.497c0-1.384-1.126-2.51-2.512-2.51-1.364 0-2.475 1.109-2.479 2.473v.585C15.842 8.018 15.672 8 15.5 8c-.565 0-1.08.196-1.5.513-.419-.317-.935-.513-1.5-.513-.17 0-.338.017-.5.05V4.5C12 3.12 10.878 2 9.5 2S7 3.12 7 4.5v7.165l-.719-.72c-.472-.473-1.1-.735-1.767-.735H4.51c-.668.002-1.297.264-1.8.765-.464.466-.72 1.084-.72 1.741 0 .66.257 1.277.722 1.742l5.5 5.494C9.533 21.273 11.291 22 13.158 22h.78c2.878 0 5.43-1.727 6.498-4.4.374-.934.564-1.918.564-2.923l-.002-7.173z"/>
</svg>
